src/icons/keyline/Identify.svg

<svg width="29" height="29" viewBox="0 0 29 29" fill="none" xmlns="http://www.w3.org/2000/svg">
<path d="M13.8545 20.2304C18.7322 20.2304 22.6855 16.2762 22.6855 11.3994C22.6855 6.52259 18.7322 2.56836 13.8545 2.56836C8.97671 2.56836 5.02344 6.52259 5.02344 11.3994C5.02344 16.2762 8.97767 20.2304 13.8545 20.2304Z" stroke="black" stroke-width="2.5" stroke-miterlimit="10" stroke-linejoin="round"/>
<path d="M19.7679 17.9447C18.612 18.9901 17.1845 19.7389 15.5967 20.0567L19.3551 26.5684L23.3967 24.2346L19.7679 17.9447Z" stroke="black" stroke-width="2.5" stroke-miterlimit="10" stroke-linecap="square" stroke-linejoin="round"/>
<path d="M20.0234 17.5684V16.7297C20.0234 14.8227 18.659 13.15 16.6877 12.6393L15.9673 12.4523C15.4554 12.3201 15.2606 11.74 15.6003 11.3597L16.1318 10.7641C17.0391 9.74814 16.9667 8.25515 15.9644 7.31941C14.8916 6.31801 13.1494 6.31801 12.0766 7.31941C11.0743 8.25515 11.0019 9.74814 11.9092 10.7641L12.4407 11.3597C12.7804 11.74 12.5866 12.3201 12.0747 12.4523L11.3562 12.6384C9.38592 13.1491 8.02344 14.8208 8.02344 16.7261L8.02344 17.5684" stroke="black" stroke-width="2.5" stroke-linecap="round" stroke-linejoin="round"/>
</svg>

<svg width="29" height="29" viewBox="0 0 29 29" fill="none" xmlns="http://www.w3.org/2000/svg">
<path d="M13.9,20.2c4.9,0,8.8-4,8.8-8.8c0-4.9-4-8.8-8.8-8.8C9,2.6,5,6.5,5,11.4C5,16.3,9,20.2,13.9,20.2z" stroke="black" stroke-width="2.5" stroke-miterlimit="10" stroke-linejoin="round"/>
<path d="M19.8,17.9c-1.2,1-2.6,1.8-4.2,2.1l3.8,6.5l4-2.3L19.8,17.9z" stroke="black" stroke-width="2.5" stroke-miterlimit="10" stroke-linecap="square" stroke-linejoin="round"/>
<path d="M20,17.6v-0.8c0-1.9-1.4-3.6-3.3-4.1L16,12.5c-0.5-0.1-0.7-0.7-0.4-1.1l0.5-0.6C17,9.7,17,8.3,16,7.3
	c-1.1-1-2.8-1-3.9,0c-1,0.9-1.1,2.4-0.2,3.4l0.5,0.6c0.3,0.4,0.1,1-0.4,1.1l-0.7,0.2c-2,0.5-3.3,2.2-3.3,4.1v0.8" stroke="black" stroke-width="2.5" stroke-linecap="round" stroke-linejoin="round"/>
</svg>
